!!!COA:	Josquin des Prez
!!!CDT:	~1450-1521/08/27
!!!OTL:	Qui habitat in adjutorio altissimi
!!!AGN:	Motet
!!!SCT:	NJE 18.7
!!!SCA:	New Josquin Edition 18.7
!!!voices:	4
**kern	**kern	**kern	**kern
*staff4	*staff3	*staff2	*staff1
*Ivox	*Ivox	*Ivox	*Ivox
*I"Bassus	*I"Tenor	*I"Altus	*I"Superius
*I'B	*I'T	*I'A	*I'S
*>[A,B]	*>[A,B]	*>[A,B]	*>[A,B]
*>A	*>A	*>A	*>A
*clefF4	*clefGv2	*clefGv2	*clefG2
*k[b-]	*k[b-]	*k[b-]	*k[b-]
*M2/1	*M2/1	*M2/1	*M2/1
*met(C|)	*met(C|)	*met(C|)	*met(C|)
=1-	=1-	=1-	=1-
0r	0r	0r	1G
.	.	.	2G/
.	.	.	2G/
=2	=2	=2	=2
0r	0r	0r	1.d
.	.	.	2G/
=3	=3	=3	=3
0r	0r	1G	2d/
.	.	.	2G/
.	.	2G/	2d/
.	.	2G/	2e/
=4	=4	=4	=4
0r	0r	1.d	1f
.	.	.	1B-
.	.	2G/	.
=5	=5	=5	=5
0r	1G	2d\	1.b-
.	.	2G/	.
.	2G/	2d\	.
.	2G/	2e\	2b-\
=6	=6	=6	=6
0r	1.d	1f	1a
.	.	2d\	2a/
.	2G/	[2d\	[2b-\
=7	=7	=7	=7
1GG	2d\	4d\]	4b-\]
.	.	4c\	4a/
.	2G/	4B-\	4g/
.	.	4A/	4f/
2GG/	2d\	2B-\	2g/
2GG/	2e\	2B-\	2g/
=8	=8	=8	=8
1.D	1f	2A/	1a
.	.	2.d\	.
.	2d\	.	1r
.	.	4c\	.
2GG/	[2d\	[2B-\	.
=9	=9	=9	=9
2D\	4d\]	4B-\]	0r
.	4c\	4A/	.
2GG/	4B-\	2G/	.
.	4A/	.	.
2D\	2B-\	2F/	.
2E\	2B-\	2G/	.
=10	=10	=10	=10
1.F	1A	0D	1a
.	2r	.	2a/
2F\	2d\	.	[2a/
=11	=11	=11	=11
1F	2c\	1r	2a/]
.	1d	.	2a/
1G	.	1d	1b-
.	2B-\	.	.
=12	=12	=12	=12
1D	1f	1d	1a
2r	1B-	[1d	1b-
2G\	.	.	.
=13	=13	=13	=13
2F\	0r	2d\]	2a/
1G	.	2d\	1b-
.	.	1e-i	.
2E-\	.	.	4a/
.	.	.	4g/
=14	=14	=14	=14
1B-	0r	1d	1f
1E-i	.	1e-i	2r
.	.	.	2g/
=15	=15	=15	=15
0r	0r	2d\	2f/
.	.	1e-i	1g
.	.	4d\	4f/
.	.	4c\	4e-i/
=16	=16	=16	=16
2r	2r	1B-	1d
2B-\	2d\	.	.
2A\	2c\	1r	1r
[2B-\	[2d\	.	.
=17	=17	=17	=17
2B-\]	2d\]	1r	0r
4A\	4c\	.	.
4G\	4B-\	.	.
2F\	1A	2r	.
2D\	.	2d\	.
=18	=18	=18	=18
2r	0r	2d\	2r
2G\	.	2.d\	2b-\
2F\	.	.	2a/
.	.	4c\	.
[2G\	.	4B-\	[2b-\
.	.	4A/	.
=19	=19	=19	=19
4G\]	1r	1G	4b-\]
4F\	.	.	4a/
4E\	.	.	1g
4D\	.	.	.
2C/	2r	1A	.
2D\	2d\	.	2f#i/
=20	=20	=20	=20
1GG	2d\	1G	2g/
.	2.d\	.	2b-\
1r	.	1r	2a/
.	4c\	.	.
.	4B-\	.	[2b-\
.	4A/	.	.
=21	=21	=21	=21
0r	1G	0r	4b-\]
.	.	.	4a/
.	.	.	1g
.	1A	.	.
.	.	.	2f#i/
=22	=22	=22	=22
1r	2G/	0r	1g
.	2B-\	.	.
[1D	2A/	.	1r
.	[2B-\	.	.
=23	=23	=23	=23
2D\]	4B-\]	0r	0r
.	4A/	.	.
2BB-/	1G	.	.
2C/	.	.	.
2D\	2F#i/	.	.
=24	=24	=24	=24
2GG/	0G	1.d	0r
2G\	.	.	.
2G\	.	.	.
2G\	.	2B-\	.
=25	=25	=25	=25
2F\	0r	2c\	0r
2D\	.	2d\	.
1E	.	1G	.
=26	=26	=26	=26
0D	0r	2r	1.a
.	.	2d\	.
.	.	2d\	.
.	.	2d\	2f/
=27	=27	=27	=27
0r	0r	2c\	2g/
.	.	2A/	2a/
.	.	1B-	1d
=28	=28	=28	=28
0r	1.A	4A/	2r
.	.	4G/	.
.	.	4F/	2a/
.	.	4E/	.
.	.	2D/	2a/
.	2F/	[2d\	2a/
=29	=29	=29	=29
0r	2G/	4d\]	2g/
.	.	4B-\	.
.	2A/	2c\	2e/
.	1D	1d	1f
=30	=30	=30	=30
2r	2r	2r	2e/
2D\	2d\	2A/	2f/
2D\	2d\	2A/	2f/
2BB-/	2d\	2B-\	2d/
=31	=31	=31	=31
2C/	2c\	2G/	2e/
2D\	2A/	2F/	2f/
1GG	1B-	[1d	1g
=32	=32	=32	=32
0D	1A	1d]	0a
.	2r	1d	.
.	2d\	.	.
=33	=33	=33	=33
0r	2d\	0r	2r
.	2.f\	.	2a/
.	.	.	2a/
.	4f\	.	.
.	2c\	.	[2cc\
=34	=34	=34	=34
0r	1e-i	0r	4cc\]
.	.	.	4cc\
.	.	.	2g/
.	[1d	.	1b-
=35	=35	=35	=35
2r	1d]	1r	0a
2D\	.	.	.
2D\	1r	2r	.
[2F\	.	2A/	.
=36	=36	=36	=36
4F\]	0r	2A/	0r
4F\	.	.	.
2C/	.	2.c\	.
1E-	.	.	.
.	.	4c\	.
.	.	2G/	.
=37	=37	=37	=37
0D	1r	1B-	1r
.	2r	1A	1a
.	[2d\	.	.
=38	=38	=38	=38
0r	2d\]	0r	2a/
.	2d\	.	1b-
.	2.B-\	.	.
.	.	.	4a/
.	4c\	.	4g/
=39	=39	=39	=39
1r	0d	1r	1b-
1D	.	1d	1a
=40	=40	=40	=40
2D\	0r	1B-	1r
1E-i	.	.	.
.	.	[1c	1g
4D\	.	.	.
4C/	.	.	.
=41	=41	=41	=41
1E-i	1G	1c]	1g
1D	1A	1d	2.f/
.	.	.	4e/
=42	=42	=42	=42
2r	2B-\	2r	4d/
.	.	.	4e/
2D\	2A/	2d\	4f/
.	.	.	4g/
2D\	2f\	2d\	2a/
2BB-/	2d\	2d\	2b-\
=43	=43	=43	=43
1C	1e-i	2.c\	2a/
.	.	.	2.g/
.	.	4B-\	.
1D	2.d\	1A	.
.	.	.	4f#i/
.	.	.	4f#i/
.	4c\	.	4e/
=44	=44	=44	=44
0GG	4B-\	1G	1g
.	4A/	.	.
.	1B-	.	.
.	.	1d	2r
.	4A/	.	2d/
.	4G/	.	.
=45	=45	=45	=45
2r	2F/	2r	4f/
.	.	.	4e/
2D\	2f\	2d\	4f/
.	.	.	4g/
2D\	2f\	2d\	2a/
2BB-/	2d\	2d\	2b-\
=46	=46	=46	=46
1C	1e-i	2.c\	2a/
.	.	.	2.g/
.	.	4B-\	.
1D	1d	1A	.
.	.	.	4f#i/
.	.	.	4f#i/
.	.	.	8e/L
.	.	.	8f#i/J
=47	=47	=47	=47
1GG	1B-	0G	1g
2r	2r	.	2r
2GG/	2B-\	.	2d/
=48	=48	=48	=48
2GG/	2B-\	1r	2d/
2GG/	2B-\	.	2d/
1C	1c	[1G	1e
=49	=49	=49	=49
1GG	1B-	2G/]	2d/
.	.	2G/	1g
1r	1r	2G/	.
.	.	[2A/	2e/
=50	=50	=50	=50
0r	0r	2A/]	2f/
.	.	2G/	2g/
.	.	2.c\	2e/
.	.	.	2c/
.	.	4A/	.
=51	=51	=51	=51
0r	0r	2B-\	2d/
.	.	2c\	2e/
.	.	2A/	2c/
.	.	2F/	2A/
=52	=52	=52	=52
0r	0r	2G/	2B-/
.	.	2A/	2c/
.	.	2F/	2A/
.	.	2D/	2d/
=53	=53	=53	=53
0r	0r	2E/	2c/
.	.	2F/	2.d/
.	.	2D/	.
.	.	.	4e/
.	.	2d\	4f/
.	.	.	4d/
=54	=54	=54	=54
0r	0r	2c\	2e/
.	.	2.f\	4d/
.	.	.	4e/
.	.	.	4f/
.	.	4e\	4g/
.	.	2d\	[2a/
=55	=55	=55	=55
0r	0r	4c\	4a/]
.	.	4B-\	4g/
.	.	4A/	1g
.	.	4G/	.
.	.	2A/	.
.	.	2A/	2f#i/
=56	=56	=56	=56
0r	1r	0G	0g
.	1G	.	.
=57	=57	=57	=57
1GG	2G/	0r	1r
.	2G/	.	.
2GG/	[1B-	.	1d
2GG/	.	.	.
=58	=58	=58	=58
2.BB-/	1B-]	1D	2d/
.	.	.	2d/
4C/	.	.	.
1D	1A	2D/	[1f
.	.	2D/	.
=59	=59	=59	=59
2D\	1d	2.F/	2f/]
2D\	.	.	4e/
.	.	4G/	4d/
1D	1d	[1A	1f
=60	=60	=60	=60
2AA/	1c	1A]	1e
1C	.	.	.
.	1c	[1G	2r
4BB-/	.	.	2g/
4AA/	.	.	.
=61	=61	=61	=61
0GG	2B-\	2G/]	2g/
.	2G/	2G/	1g
.	1B-	1G	.
.	.	.	4d/
.	.	.	4e/
=62	=62	=62	=62
0r	1A	1D	4f/
.	.	.	4g/
.	.	.	1a
.	[1c	[1A	.
.	.	.	4g/
.	.	.	4f/
=63	=63	=63	=63
1.C	2c\]	1A]	1e
.	2c\	.	.
.	2c\	1G	1r
2C/	2c\	.	.
=64	=64	=64	=64
2C/	2c\	0r	1.g
2C/	2G/	.	.
1C	1c	.	.
.	.	.	2g/
=65	=65	=65	=65
1GG	1B-	1.G	2g/
.	.	.	2g/
1C	1G	.	1e
.	.	2G/	.
=66	=66	=66	=66
1BB-	1r	2G/	1d
.	.	2G/	.
1GG	1G	1G	1g
=67	=67	=67	=67
1r	1d	1D	1f
1GG	2r	1G	1d
.	2B-\	.	.
=68	=68	=68	=68
1D	2A/	1F	0r
.	2A/	.	.
2r	1d	1D	.
2BB-/	.	.	.
=69	=69	=69	=69
2AA/	1c	1A	0r
2AA/	.	.	.
1D	2.A/	2r	.
.	.	2F/	.
.	4B-\	.	.
=70	=70	=70	=70
1C	1c	2E/	0r
.	.	2E/	.
2.AA/	2.C/	1A	.
4BB-/	4D/	.	.
=71	=71	=71	=71
1C	1E	2G/	0r
.	.	2c\	.
2.AA/	2.C/	2c\	.
.	.	[2c\	.
4BB-/	4D/	.	.
=72	=72	=72	=72
2C/	2E/	4c\]	0r
.	.	4B-\	.
2D\	2F/	1A	.
1BB-	1D	.	.
.	.	2G/	.
=73	=73	=73	=73
1AA	2E/	2A/	0r
.	2A/	2c\	.
2r	2G/	2B-\	.
2AA/	[2A/	[2c\	.
=74	=74	=74	=74
1C	2A/]	2c\]	0r
.	4G/	4B-\	.
.	4F/	4A/	.
1C	1E	1G	.
=75	=75	=75	=75
1GG	2r	2r	0r
.	2d\	2B-\	.
2r	2c\	2A/	.
2GG/	[2d\	[2B-\	.
=76	=76	=76	=76
1D	2d\]	2B-\]	0r
.	4c\	4A/	.
.	4B-\	4G/	.
1D	1A	[1F	.
=77	=77	=77	=77
2.AA/	2.c\	2F/]	0r
.	.	4E/	.
4BB-/	4B-\	4D/	.
2C/	4A/	2E/	.
.	4G/	.	.
[2D\	[2B-\	[2F/	.
=78	=78	=78	=78
2D\]	4B-\]	4F/]	0r
.	4A/	4E/	.
2BB-/	1G	1D	.
1AA	.	.	.
.	2F#i/	2C/	.
=79	=79	=79	=79
[0GG	[0G	0D	1r
.	.	.	1g
=80	=80	=80	=80
0GG]	0G]	1r	1.b-
.	.	1d	.
.	.	.	2b-\
=81	=81	=81	=81
0D	1r	1.f	2a/
.	.	.	2f/
.	1A	.	1a
.	.	2f\	.
=82	=82	=82	=82
1r	1.c	2e-i\	1g
.	.	2c\	.
1C	.	1e-i	1g
.	2c\	.	.
=83	=83	=83	=83
1.G	2B-\	1d	1b-
.	2G/	.	.
.	2.d\	1B-	1b-
2G\	.	.	.
.	4e\	.	.
=84	=84	=84	=84
2.F\	0f	1c	1a
4E\	.	.	.
1D	.	1d	1a
=85	=85	=85	=85
1GG	1r	2.B-\	1.b-
.	.	4c\	.
1G	1B-	2d\	.
.	.	2e\	2b-\
=86	=86	=86	=86
1F	1c	1f	1a
1D	1d	1f	1a
=87	=87	=87	=87
2G\	2.B-\	2d\	2b-\
2G\	.	2d\	2b-\
.	4c\	.	.
2G\	2d\	1B-	1b-
2G\	2e\	.	.
=88	=88	=88	=88
1F	1f	1c	1a
1D	1f	1d	2a/
.	.	.	[2b-\
=89	=89	=89	=89
2E-\	2B-\	1.G	4b-\]
.	.	.	4a/
2E-i\	2B-\	.	4g/
.	.	.	4f/
1E-i	1c	.	2g/
.	.	2G/	2g/
=90	=90	=90	=90
1D	1d	1A	1f
1BB-	1d	1D	2f/
.	.	.	[2g/
=91	=91	=91	=91
1.C	2.G/	1.E	4g/]
.	.	.	4f/
.	.	.	4e/
.	4F/	.	4d/
.	2G/	.	2e/
2C/	2A/	2E/	2e/
=92	=92	=92	=92
0BB-	1B-	0F	1d
.	1r	.	1f
=93	=93	=93	=93
0r	1B-	0r	1g
.	1c	.	1g
=94	=94	=94	=94
0r	1c	0r	1a
.	1d	.	1f
=95	=95	=95	=95
0r	1B-	0r	1g
.	1c	.	[1a
=96	=96	=96	=96
0r	1.d	0r	2a/]
.	.	.	2a/
.	.	.	1a
.	2d\	.	.
=97	=97	=97	=97
0r	1.d	0r	1a
.	.	.	2.b-\
.	2B-\	.	.
.	.	.	4a/
=98	=98	=98	=98
0r	2e-i\	0r	2g/
.	2d\	.	2f/
.	1c	.	1e-i
=99	=99	=99	=99
1r	0d	1F	0d
1BB-	.	1G	.
=100	=100	=100	=100
1C	0r	1G	0r
1C	.	1A	.
=101	=101	=101	=101
1D	1r	1F	0r
1BB-	1D	1G	.
=102	=102	=102	=102
1C	1E	1.A	0r
[1D	[1F	.	.
.	.	2A/	.
=103	=103	=103	=103
2D\]	2F/]	2B-\	0r
2D\	2F/	2A/	.
2.E-\	2.G/	2.c\	.
4D\	4F/	4B-\	.
=104	=104	=104	=104
2C/	2E/	2A/	0r
2BB-/	2D/	2G/	.
1AA	1C	1F#i	.
=105	=105	=105	=105
0GG	1D	0G	1b-
.	1B-	.	1g
=106	=106	=106	=106
0r	1c	0r	1.a
.	[1d	.	.
.	.	.	2a/
=107	=107	=107	=107
0r	2d\]	0r	2b-\
.	2d\	.	2a/
.	2.e-\	.	2.cc\
.	4d\	.	4b-\
=108	=108	=108	=108
0r	2c\	0r	2a/
.	2B-\	.	2g/
.	1A	.	1f#i
=109	=109	=109	=109
1G	0G	1r	0g
[1B-	.	1d	.
=110	=110	=110	=110
2B-\]	0r	1.f	0r
2B-\	.	.	.
2A\	.	.	.
2F\	.	2f\	.
=111	=111	=111	=111
2G\	0r	2e\	0r
2A\	.	2c\	.
2D\	.	2d\	.
[2A\	.	2e\	.
=112	=112	=112	=112
4A\]	0r	2c\	0r
4G\	.	.	.
2F\	.	1d	.
1E	.	.	.
.	.	2c#i\	.
=113	=113	=113	=113
0D	1A	0d	1r
.	[1B-	.	1d
=114	=114	=114	=114
0r	2B-\]	0r	1.f
.	2B-\	.	.
.	2A/	.	.
.	2F/	.	2f/
=115	=115	=115	=115
0r	2G/	0r	2e/
.	2A/	.	2c/
.	[1B-	.	2.d/
.	.	.	4e/
=116	=116	=116	=116
0r	2B-\]	0r	2f/
.	2G/	.	2.g/
.	1A	.	.
.	.	.	4f#i/
.	.	.	4f#i/
.	.	.	4e/
=117	=117	=117	=117
1G	0G	1r	0g
[1B-	.	1d	.
=118	=118	=118	=118
2B-\]	0r	1.f	0r
2B-\	.	.	.
2B-\	.	.	.
2B-\	.	2f\	.
=119	=119	=119	=119
2A\	0r	2f\	0r
2F\	.	2f\	.
2G\	.	2e\	.
2A\	.	2c\	.
=120	=120	=120	=120
2.F\	0r	2d\	1r
.	.	2A/	.
4D\	.	.	.
1D	.	1d	1a
=121	=121	=121	=121
0r	1.A	0c	1.cc
.	2A/	.	2a/
=122	=122	=122	=122
1r	2.G/	1d	1b-
.	4F/	.	.
2r	1D	[1f	1a
[2D\	.	.	.
=123	=123	=123	=123
2D\]	0r	2f\]	2r
2D\	.	2d\	2f/
2.C/	.	1e-i	2g/
.	.	.	2a/
4BB-/	.	.	.
=124	=124	=124	=124
1GG	0r	2d\	1b-
.	.	2B-\	.
1r	.	2c\	1a
.	.	2d\	.
=125	=125	=125	=125
2r	2r	1e-i	1g
2C/	2E-i/	.	.
2D\	2F/	1d	1r
2BB-/	2D/	.	.
=126	=126	=126	=126
1C	2E/	1c	0r
.	2.G/	.	.
1D	.	2r	.
.	4F#i/	.	.
.	4F#i/	2A/	.
.	4Eni/	.	.
=127	=127	=127	=127
0GG	0G	2B-\	1r
.	.	2G/	.
.	.	1B-	2r
.	.	.	2d/
=128	=128	=128	=128
0r	2r	1A	2e/
.	2D/	.	2f/
.	2.E/	1G	2g/
.	.	.	2g/
.	4F/	.	.
=129	=129	=129	=129
2r	2G/	0r	2b-\
2GG/	2D/	.	2b-\
2.AA/	2F/	.	1a
.	2F/	.	.
4BB-/	.	.	.
=130	=130	=130	=130
2C/	1E	1r	1g
2GG/	.	.	.
2BB-/	2D/	2r	1r
2BB-/	2d\	2D/	.
=131	=131	=131	=131
1AA	2c\	2.E/	0r
.	2A/	.	.
.	.	4F/	.
1GG	2.B-\	2G/	.
.	.	2G/	.
.	4c\	.	.
=132	=132	=132	=132
1G	2d\	2B-\	2r
.	2B-\	2B-\	2g/
2F\	2c\	1A	2a/
2D\	2d\	.	2f/
=133	=133	=133	=133
1E-	2.B-\	1G	1g
.	4c\	.	.
2D\	2d\	2r	2f/
2G\	2B-\	2G/	2b-\
=134	=134	=134	=134
2F\	2c\	2A/	2a/
2D\	2d\	2B-\	2f/
1E-i	2.B-\	2.G/	1g
.	4c\	4A/	.
=135	=135	=135	=135
2D\	2d\	2B-\	2f/
2BB-/	2d\	2B-\	2f/
2.E-i\	2B-\	2.G/	2g/
.	2c\	.	2g/
4E-i\	.	4A/	.
=136	=136	=136	=136
2D\	2d\	2B-\	2f/
2BB-/	2d\	2B-\	2f/
1E-i	2.B-\	1G	1g
.	4c\	.	.
=137	=137	=137	=137
2D\	2d\	2A/	2f/
2BB-/	2d\	2B-\	2f/
2E-i\	2B-\	2G/	2g/
2E-i\	2G/	2E-i/	2g/
=138	=138	=138	=138
2D\	2A/	2F/	2f/
2BB-/	2B-\	2G/	2d/
2.C/	2.G/	2.E-i/	1e-i
4BB-/	4A/	4F/	.
=139	=139	=139	=139
[0GG	0B-	[0G	[0d
=140	=140	=140	=140
0GG]	2r	0G]	0d_
.	2G/	.	.
.	2B-\	.	.
.	2G/	.	.
=141	=141	=141	=141
1GG	2B-\	2r	0d]
.	2G/	2G/	.
2GG/	2.B-\	2D/	.
2GG/	.	2G/	.
.	4c\	.	.
=142	=142	=142	=142
2BB-/	2d\	2F/	2r
2GG/	2B-\	2G/	2d/
2.BB-/	1B-	2D/	2d/
.	.	2G/	2d/
4C/	.	.	.
=143	=143	=143	=143
2D\	2A/	0F	2f/
4BB-/	2.f\	.	2d/
4C/	.	.	.
4D\	.	.	2.f/
4E\	4e\	.	.
[2F\	[2d\	.	.
.	.	.	4g/
=144	=144	=144	=144
2F\]	4d\]	1D	2a/
.	4c\	.	.
2D\	1B-	.	2f/
1C	.	1E	1e
.	2A/	.	.
=145	=145	=145	=145
1BB-	1B-	2F/	1d
.	.	2D/	.
2r	2r	2.G/	2r
2GG/	2B-\	.	2g/
.	.	4G/	.
=146	=146	=146	=146
2.C/	2.e-i\	2G/	2.g/
.	.	2E-i/	.
4C/	4e-i\	.	4a/
2BB-/	2d\	2F/	2b-\
2GG/	2B-\	[2G/	2b-\
=147	=147	=147	=147
1C	1e-i	2G/]	1g
.	.	2G/	.
1C	1e-i	2.E-i/	1cc
.	.	4F/	.
=148	=148	=148	=148
0GG	2d\	1G	1b-
.	2G/	.	.
.	2B-\	1G	2g/
.	2G/	.	2b-\
=149	=149	=149	=149
1r	1d	1G	2g/
.	.	.	2.b-\
2G\	1r	1d	.
.	.	.	4a/
2B-\	.	.	2f/
=150	=150	=150	=150
2G\	0r	2B-\	1g
2.B-\	.	2.d\	.
.	.	.	1d
4A\	.	4c\	.
2F\	.	2A/	.
=151	=151	=151	=151
1G	2r	1B-	0r
.	2d\	.	.
1D	2f\	1A	.
.	2d\	.	.
=152	=152	=152	=152
0r	1f	2d\	2r
.	.	2f\	2d/
.	1B-	2d\	2f/
.	.	[2f\	2d/
=153	=153	=153	=153
2D\	1A	4f\]	1a
.	.	4e\	.
2F\	.	2c\	.
2D\	2r	1d	2r
[2F\	[2A/	.	[2a/
=154	=154	=154	=154
4F\]	4A/]	[0Al	4a/]
4E\	4B-\	.	4g/
2C/	2c\	.	2e/
1D	1F	.	1f
=155	=155	=155	=155
0AAl	0cl	0A]	0e
!!LO:LB:i:g=z
=156||	=156||	=156||	=156||
*>B	*>B	*>B	*>B
*clefF4	*clefGv2	*clefGv2	*clefG2
*k[b-]	*k[b-]	*k[b-]	*k[b-]
*M3/1	*M3/1	*M3/1	*M3/1
*met(C|3)	*met(C|3)	*met(C|3)	*met(C|3)
!!!OMD: Non accedet ad te malum
!!section: Non accedet ad te malum
0.r	0.r	0.r	1g
.	.	.	1g
.	.	.	1g
=157	=157	=157	=157
0.r	1G	0.r	0b-
.	1G	.	.
.	1G	.	1g
=158	=158	=158	=158
0.r	0B-	0.r	1f
.	.	.	0b-
.	1G	.	.
=159	=159	=159	=159
1D	1F	0.r	0a
1D	0d	.	.
1D	.	.	1r
=160	=160	=160	=160
0F	1.c	1A	0.r
.	.	1A	.
.	2F/	.	.
1D	1F	1A	.
=161	=161	=161	=161
1C	0.r	0c	0.r
0F	.	.	.
.	.	1A	.
=162	=162	=162	=162
1E	0.r	1G	1g
1.C	.	0c	1g
.	.	.	1g
2BB-/	.	.	.
=163	=163	=163	=163
0.GG	1G	0B-	0b-
.	1G	.	.
.	1G	1r	1g
=164	=164	=164	=164
0.r	1.B-	1d	1f
.	.	1d	1.b-
.	2A/	.	.
.	1G	1d	.
.	.	.	2b-\
=165	=165	=165	=165
1D	0F	0f	1a
1D	.	.	1f
1D	1r	1d	1r
=166	=166	=166	=166
0F	1A	1c	0.r
.	1A	1.f	.
1D	1A	.	.
.	.	2f\	.
=167	=167	=167	=167
1C	0c	1e	0.r
1.F	.	1c	.
.	1A	1r	.
2F\	.	.	.
=168	=168	=168	=168
1E	1G	0.r	0.r
0C	1.c	.	.
.	2c\	.	.
=169	=169	=169	=169
1.G	1B-	1.d	0.r
.	1G	.	.
2G\	.	2d\	.
1G	1B-	1d	.
=170	=170	=170	=170
1F	1A	1d	0.r
1.G	1B-	1.d	.
.	1G	.	.
2E\	.	2c\	.
=171	=171	=171	=171
1F	1A	1d	0.r
0G	0B-	1.e-i	.
.	.	2d\	.
=172	=172	=172	=172
0.D	0A	[0.d	1.a
.	.	.	2a/
.	1F	.	1a
=173	=173	=173	=173
0.r	1D	0.d_	1a
.	1.G	.	1.b-
.	2G/	.	2g/
=174	=174	=174	=174
0.r	1F	0.d]	1a
.	0G	.	0b-
=175	=175	=175	=175
0.r	[0.D	1d	0a
.	.	1d	.
.	.	1d	1r
=176	=176	=176	=176
0.r	0.D]	0f	1a
.	.	.	1a
.	.	1d	1a
=177	=177	=177	=177
0.r	0.r	1c	0cc
.	.	0f	.
.	.	.	1a
=178	=178	=178	=178
0.r	0.r	0e-i	1g
.	.	.	0cc
.	.	1c	.
=179	=179	=179	=179
0.r	0.r	1d	1b-
.	.	1e-i	1g
.	.	1c	1a
=180	=180	=180	=180
0.r	0.r	1d	1.b-
.	.	1.B-	.
.	.	.	2a/
.	.	.	1g
.	.	2c\	.
=181	=181	=181	=181
*M2/1	*M2/1	*M2/1	*
*met(C|)	*met(C|)	*met(C|)	*
!!primary-mensuration: met(C|)
1D	1r	0d	3%2f
.	.	.	3%4b-
1G	2r	.	.
.	[2d\	.	.
=182	=182	=182	=182
*	*	*	*M2/1
*	*	*	*met(C|)
2F\	2d\]	1r	0a
2D\	2d\	.	.
2.F\	2c\	2r	.
.	2A/	[2c\	.
4E\	.	.	.
=183	=183	=183	=183
2C/	2.c\	2c\]	2r
2C/	.	2c\	1g
.	4B-\	.	.
2.E-\	2G/	2B-\	.
.	2B-\	2G/	2g/
4E-i\	.	.	.
=184	=184	=184	=184
2D\	2B-\	2.B-\	2f/
4BB-/	2B-\	.	2d/
4C/	.	4A/	.
4D\	2A/	2F/	2.f/
4E-i\	.	.	.
[2F\	4F/	2A/	.
.	4G/	.	4e/
=185	=185	=185	=185
2F\]	4A/	2.A/	2c/
.	4B-\	.	.
2C/	2.c\	.	2c/
.	.	4A/	.
1E-i	.	4G/	2.g/
.	4B-\	4A/	.
.	2G/	4B-\	.
.	.	4c\	4g/
=186	=186	=186	=186
2D\	1B-	2d\	2f/
4BB-/	.	2.f\	4d/
4C/	.	.	4e/
4D\	1A	.	4f/
4E\	.	4e\	4g/
2F\	.	4d\	[2a/
.	.	4c\	.
=187	=187	=187	=187
2G\	2d\	2B-\	4a/]
.	.	.	4g/
2C/	2e-i\	2c\	1g
1D	1d	1A	.
.	.	.	2f#i/
=188	=188	=188	=188
1GG	1.B-	0G	0g
2r	.	.	.
2G\	4A/	.	.
.	4G/	.	.
=189	=189	=189	=189
2.G\	1B-	2r	0r
.	.	2d\	.
4G\	.	.	.
2F\	1A	2.d\	.
2D\	.	.	.
.	.	4d\	.
=190	=190	=190	=190
1F	0r	2c\	0r
.	.	2A/	.
1E-	.	1c	.
=191	=191	=191	=191
0D	2r	1B-	1r
.	2d\	.	.
.	2.d\	1A	2r
.	.	.	2a/
.	4d\	.	.
=192	=192	=192	=192
0r	2c\	0r	2.a/
.	2A/	.	.
.	.	.	4a/
.	1c	.	2g/
.	.	.	2e/
=193	=193	=193	=193
2r	1B-	2r	1g
2GG/	.	2G/	.
1D	1A	2A/	1f
.	.	2F/	.
=194	=194	=194	=194
2C/	2r	2G/	1e
2AA/	2c\	1A	.
1BB-	1d	.	1r
.	.	2G/	.
=195	=195	=195	=195
1AA	2c\	1A	2r
.	2A/	.	2e/
2r	1B-	1r	1g
2GG/	.	.	.
=196	=196	=196	=196
2.D\	0A	2r	2f/
.	.	2F/	2d/
4D\	.	.	.
2C/	.	2.c\	1e
2AA/	.	.	.
.	.	4c\	.
=197	=197	=197	=197
4BB-/	1.D	1.d	0d
4C/	.	.	.
4D\	.	.	.
4E\	.	.	.
4F\	.	.	.
4G\	.	.	.
[2A\	4E/	2c\	.
.	4F/	.	.
=198	=198	=198	=198
4A\]	2G/	2.B-\	0r
4G\	.	.	.
1G	2E/	.	.
.	.	4G/	.
.	1D	1A	.
2F#i\	.	.	.
=199	=199	=199	=199
0G	1r	0G	2r
.	.	.	2d/
.	2r	.	2B-/
.	2d\	.	2G/
=200	=200	=200	=200
0r	2B-\	0r	2.d/
.	2G/	.	.
.	.	.	4e/
.	1d	.	4f/
.	.	.	4g/
.	.	.	[2a/
=201	=201	=201	=201
0r	2c\	0r	4a/]
.	.	.	4g/
.	2B-\	.	1g
.	1A	.	.
.	.	.	2f#i/
=202	=202	=202	=202
1r	0G	0r	0g
[1G	.	.	.
=203	=203	=203	=203
2G\]	0r	1.d	0r
2G\	.	.	.
2F\	.	.	.
2G\	.	2d\	.
=204	=204	=204	=204
2C/	0r	2c\	0r
1G	.	2d\	.
.	.	2G/	.
2G\	.	[2d\	.
=205	=205	=205	=205
2F\	0r	2d\]	0r
2G\	.	2d\	.
2C/	.	2c\	.
[2G\	.	2d\	.
=206	=206	=206	=206
2G\]	0r	2G/	0r
2G\	.	2.d\	.
1G	.	.	.
.	.	4c\	.
.	.	4B-\	.
.	.	4A/	.
=207	=207	=207	=207
0D	1.d	1B-	1r
.	.	1A	[1a
.	2d\	.	.
=208	=208	=208	=208
0r	2c\	0r	2a/]
.	2d\	.	2a/
.	2G/	.	2g/
.	[2d\	.	2a/
=209	=209	=209	=209
0r	2d\]	0r	2d/
.	2d\	.	1a
.	2c\	.	.
.	2d\	.	2a/
=210	=210	=210	=210
0r	2G/	0r	2g/
.	1d	.	2a/
.	.	.	2d/
.	2d\	.	[2a/
=211	=211	=211	=211
0r	1d	0r	4a/]
.	.	.	4g/
.	.	.	4f/
.	.	.	4e/
.	2A/	.	1f
.	2d\	.	.
=212	=212	=212	=212
0r	2c\	0r	2e/
.	2A/	.	2a/
.	1c	.	2g/
.	.	.	2e/
=213	=213	=213	=213
0r	2B-\	0r	1g
.	2G/	.	.
.	1B-	.	2f/
.	.	.	2d/
=214	=214	=214	=214
0r	2A/	0r	1f
.	4F/	.	.
.	4G/	.	.
.	4A/	.	2e/
.	4B-\	.	.
.	[2c\	.	4c/
.	.	.	4d/
=215	=215	=215	=215
0r	4c\]	0r	4e/
.	4B-\	.	4f/
.	2G/	.	1g
.	1A	.	.
.	.	.	2f#i/
=216	=216	=216	=216
2r	1G	2r	2g/
2G\	.	2d\	2b-\
2F\	2r	2.f\	2a/
2D\	2d\	.	2f/
.	.	4f\	.
=217	=217	=217	=217
1F	2c\	2f\	1a
.	2A/	2c\	.
2E-\	1c	2r	2g/
2C/	.	2e-\	2e/
=218	=218	=218	=218
1E-i	2B-\	2e-i\	1g
.	2G/	2B-\	.
2D\	2B-\	1d	2f/
2BB-/	2B-\	.	2d/
=219	=219	=219	=219
2C/	2A/	1c	2e/
2E-i\	2G/	.	2.g/
1D	1A	1d	.
.	.	.	4f#i/
.	.	.	4f#i/
.	.	.	4e/
=220	=220	=220	=220
1GG	1G	1B-	1g
2r	2r	2r	2r
2GG/	2G/	2B-\	2d/
=221	=221	=221	=221
2D\	2F/	2A/	2d/
2GG/	2G/	2B-\	2d/
2D\	2F/	2A/	2d/
2GG/	2G/	2B-\	2d/
=222	=222	=222	=222
1D	1F	2.A/	1f
.	.	4B-\	.
1C	2.G/	4c\	1e
.	.	4d\	.
.	.	4e\	.
.	4A/	4c\	.
=223	=223	=223	=223
1BB-	1B-	2d\	1d
.	.	2.f\	.
2.B-\	2.d\	.	1r
.	.	4f\	.
.	.	2f\	.
4A\	4c\	.	.
=224	=224	=224	=224
2G\	2B-\	2e\	0r
2F\	2A/	1d	.
1E	1G	.	.
.	.	2c#i\	.
=225	=225	=225	=225
0D	1A	1d	1r
.	2.d\	1r	2.f/
.	4c\	.	4e/
=226	=226	=226	=226
0r	2B-\	0r	2d/
.	2A/	.	2c/
.	1G	.	1B-
=227	=227	=227	=227
1r	1A	1r	1A
2r	2r	1d	2r
2D\	2A/	.	2a/
=228	=228	=228	=228
2F\	2A/	2c\	2a/
2G\	2B-\	2B-\	2d/
1E	1G	1c	1g
=229	=229	=229	=229
1D	0A	1d	1f
2r	.	2r	2r
2D\	.	2d\	2f/
=230	=230	=230	=230
2E-i\	2r	2G/	2g/
2D\	2A/	1d	2a/
2BB-/	2B-\	.	2d/
2C/	2A/	2c\	2e/
=231	=231	=231	=231
2D\	2F/	2A/	2f/
2GG/	2G/	1d	2d/
1D	2A/	.	2.f/
.	2F/	2A/	.
.	.	.	4d/
=232	=232	=232	=232
2.C/	1G	4c\	2e/
.	.	4d\	.
.	.	4e-i\	2.g/
4E-i\	.	4c\	.
1D	1A	1d	.
.	.	.	4f#i/
.	.	.	4f#i/
.	.	.	4e/
=233	=233	=233	=233
0GG	0G	1B-	0g
.	.	2r	.
.	.	2G/	.
=234	=234	=234	=234
2r	0r	4G/	0r
.	.	4A/	.
2GG/	.	4B-\	.
.	.	4c\	.
4GG/	.	2d\	.
4AA/	.	.	.
4BB-/	.	4G/	.
4C/	.	4A/	.
=235	=235	=235	=235
2D\	0r	4B-\	0r
.	.	4c\	.
4GG/	.	1d	.
4AA/	.	.	.
4BB-/	.	.	.
4C/	.	.	.
[2D\	.	4c\	.
.	.	4B-\	.
=236	=236	=236	=236
2D\]	0r	2A/	0r
4C/	.	2d\	.
4BB-/	.	.	.
2AA/	.	2c\	.
2D\	.	2A/	.
=237	=237	=237	=237
2C/	0r	2.c\	0r
2AA/	.	.	.
.	.	4c\	.
2C/	.	2G/	.
2C/	.	2c\	.
=238	=238	=238	=238
2GG/	0r	2B-\	0r
2C/	.	2G/	.
2BB-/	.	2r	.
2GG/	.	2B-\	.
=239	=239	=239	=239
2r	0r	2c\	0r
2BB-/	.	2d\	.
2C/	.	2G/	.
2D\	.	2d\	.
=240	=240	=240	=240
2GG/	0r	2.d\	0r
2D\	.	.	.
.	.	4d\	.
2.D\	.	2A/	.
.	.	2d\	.
4D\	.	.	.
=241	=241	=241	=241
2AA/	0r	2c\	0r
2D\	.	2A/	.
2C/	.	2.c\	.
2AA/	.	.	.
.	.	4c\	.
=242	=242	=242	=242
2.C/	0r	2G/	0r
.	.	2c\	.
4C/	.	.	.
2GG/	.	2B-\	.
2C/	.	2G/	.
=243	=243	=243	=243
2BB-/	0r	2.d\	0r
2GG/	.	.	.
.	.	4d\	.
2.D\	.	2A/	.
.	.	2d\	.
4D\	.	.	.
=244	=244	=244	=244
2AA/	0r	2c\	0r
2D\	.	2A/	.
2C/	.	2.c\	.
2AA/	.	.	.
.	.	4B-\	.
=245	=245	=245	=245
4C/	0r	4A/	0r
4BB-/	.	4G/	.
4AA/	.	1G	.
4GG/	.	.	.
1AA	.	.	.
.	.	2F#i/	.
=246	=246	=246	=246
[0GG	1r	[0G	0r
.	[1G	.	.
=247	=247	=247	=247
0GG_	2G/]	0G_	1r
.	2A/	.	.
.	2B-\	.	[1G
.	2G/	.	.
=248	=248	=248	=248
0GG]	1.d	0G]	2G/]
.	.	.	2A/
.	.	.	2B-/
.	2e\	.	2G/
=249	=249	=249	=249
0r	2f\	0r	1.d
.	1B-	.	.
.	4A/	.	2e/
.	4G/	.	.
=250	=250	=250	=250
0r	2F/	0r	1f
.	2f\	.	.
.	2d\	.	1B-
.	[2f\	.	.
=251	=251	=251	=251
0r	4f\]	0r	2r
.	4e\	.	.
.	4d\	.	2f/
.	4c\	.	.
.	2B-\	.	2d/
.	4A/	.	[2f/
.	4G/	.	.
=252	=252	=252	=252
0r	2F/	0r	4f/]
.	.	.	4e/
.	1B-	.	2d/
.	.	.	1c
.	2A/	.	.
=253	=253	=253	=253
0r	0B-	1r	0B-
.	.	[1G	.
=254	=254	=254	=254
1r	0r	2G/]	0r
.	.	2A/	.
[1GG	.	2B-\	.
.	.	2G/	.
=255	=255	=255	=255
2GG/]	0r	1.d	0r
2AA/	.	.	.
2BB-/	.	.	.
2GG/	.	2e\	.
=256	=256	=256	=256
1.D	0r	1f	0r
.	.	1B-	.
2E\	.	.	.
=257	=257	=257	=257
1F	0r	2r	0r
.	.	2f\	.
1BB-	.	2d\	.
.	.	[2f\	.
=258	=258	=258	=258
2r	0r	4f\]	0r
.	.	4e\	.
2F\	.	4d\	.
.	.	4c\	.
2D\	.	2B-\	.
[2F\	.	2A/	.
=259	=259	=259	=259
4F\]	0r	2F/	0r
4E\	.	.	.
2D\	.	1B-	.
1C	.	.	.
.	.	2A/	.
=260	=260	=260	=260
0BB-	1r	0B-	2r
.	.	.	2d/
.	2r	.	2d/
.	2d\	.	2d/
=261	=261	=261	=261
0r	2d\	0r	2B-/
.	2d\	.	2.d/
.	2B-\	.	.
.	.	.	4c/
.	[2d\	.	4B-/
.	.	.	4A/
=262	=262	=262	=262
0r	4d\]	0r	2G/
.	4c\	.	.
.	4B-\	.	2d/
.	4A/	.	.
.	1G	.	2d/
.	.	.	2d/
=263	=263	=263	=263
2r	0F	1r	0f
2D\	.	.	.
2D\	.	2r	.
2D\	.	2d\	.
=264	=264	=264	=264
2BB-/	0r	2d\	0r
2.D\	.	2d\	.
.	.	2B-\	.
4C/	.	.	.
4BB-/	.	[2d\	.
4AA/	.	.	.
=265	=265	=265	=265
1GG	2r	4d\]	2r
.	.	4c\	.
.	2G/	4B-\	2d/
.	.	4A/	.
2r	2G/	2G/	2d/
2GG/	2G/	2B-\	2d/
=266	=266	=266	=266
2D\	1F	2A/	4f/
.	.	.	4g/
2D\	.	2F/	2.a/
1C	1G	2.c\	.
.	.	.	4g/
.	.	.	[2g/
.	.	4B-\	.
=267	=267	=267	=267
1D	1D	1A	2g/]
.	.	.	2f#i/
1GG	2r	1G	2g/
.	2G/	.	2d/
=268	=268	=268	=268
2r	2G/	2r	2d/
2GG/	2G/	2B-\	2d/
2D\	1F	2A/	4f/
.	.	.	4g/
2D\	.	2F/	[2a/
=269	=269	=269	=269
1C	1G	2.c\	4a/]
.	.	.	4g/
.	.	.	1g
.	.	4B-\	.
1D	1D	1A	.
.	.	.	2f#i/
=270	=270	=270	=270
2GG/	2B-\	2G/	1g
2C/	2c\	2E-i/	.
2BB-/	2d\	2D/	1r
[2E-\	[2B-\	[2G/	.
=271	=271	=271	=271
4E-\]	4B-\]	4G/]	1G
4D\	4c\	4F/	.
2BB-/	2d\	2D/	.
2.C/	2.G/	1E-i	2G/
.	.	.	2G/
4BB-/	4A/	.	.
=272	=272	=272	=272
[0GG	0B-	0D	1.d
.	.	.	2G/
=273	=273	=273	=273
0GG]	1G	0r	2d/
.	.	.	2G/
.	2G/	.	2d/
.	2G/	.	2e/
=274	=274	=274	=274
0r	1.d	0r	1f
.	.	.	1B-
.	2G/	.	.
=275	=275	=275	=275
0r	2d\	1G	1.b-
.	2G/	.	.
.	2d\	2G/	.
.	2e\	2G/	2b-\
=276	=276	=276	=276
0r	1f	1.d	1a
.	2d\	.	2a/
.	[2d\	2G/	[2b-\
=277	=277	=277	=277
1GG	4d\]	2d\	4b-\]
.	4c\	.	4a/
.	4B-\	2G/	4g/
.	4A/	.	4f/
2GG/	2B-\	2d\	2g/
2GG/	2B-\	2e\	2g/
=278	=278	=278	=278
1.D	2A/	1f	1a
.	2D/	.	.
.	2F/	2d\	2a/
2GG/	2G/	[2d\	2b-\
=279	=279	=279	=279
2D\	2D/	4d\]	2a/
.	.	4c\	.
2GG/	2G/	4B-\	1b-
.	.	4A/	.
2D\	2F/	2B-\	.
2E\	2G/	2B-\	4a/
.	.	.	4g/
=280	=280	=280	=280
1F	4D/	2A/	1a
.	4E/	.	.
.	4F/	2d\	.
.	4G/	.	.
2F\	2A/	2c\	2a/
[2G\	4G/	2B-\	[2b-\
.	4A/	.	.
=281	=281	=281	=281
4G\]	4B-\	1G	4b-\]
4F\	4c\	.	4a/
4E\	2.d\	.	4g/
4D\	.	.	4f/
2E\	.	1G	2g/
.	4c#i\	.	.
2E\	4c#i\	.	2g/
.	4Bni\	.	.
=282	=282	=282	=282
0Dl	0dl	0Al	0fl
==	==	==	==
*-	*-	*-	*-
!!!RDF**kern: l=long note in original notation
!!!RDF**kern: i=editorial accidental
!!!ENC:	Jesse Rodin 8-17-2012
!!!END:	2012/08/17/
!!!EED:	Jesse Rodin
!!!EEV:	2012/08/17/
!!attribution-level@Jos: 2 (slightly less secure)
!!!ONB:	Translated from MusicXML and edited on 2012/08/17/ by Craig Sapp
!!muse2ps: C^@{COA}?\n@{SCT}^i2I150v85,85,85,150Q16c110
